Papirus/48x48/apps/mate-inhibit-applet.svg

<svg xmlns="http://www.w3.org/2000/svg" width="48" height="48" version="1.1" viewBox="0 0 48 48">
 <rect style="fill:#8e8e8e" width="32" height="24" x="-42" y="-36" rx="2" ry="2" transform="matrix(0,-1,-1,0,0,0)"/>
 <rect style="fill:#8e8e8e" width="32" height="40" x="-38" y="-44" rx="2" ry="2" transform="matrix(0,-1,-1,0,0,0)"/>
 <rect style="opacity:0.5" width="26" height="34" x="-35" y="-41" rx="0" ry="0" transform="matrix(0,-1,-1,0,0,0)"/>
 <path style="opacity:0.2;fill:#ffffff" d="m 6,5.9999886 c -1.108,0 -2,0.892 -2,2 v 1 c 0,-1.108 0.892,-2 2,-2 h 36 c 1.108,0 2,0.892 2,2 v -1 c 0,-1.108 -0.892,-2 -2,-2 z"/>
 <path style="opacity:0.2" d="m 12,38.999989 v 1 c 0,1.108 0.892,2 2,2 h 20 c 1.108,0 2,-0.892 2,-2 v -1 c 0,1.108 -0.892,2 -2,2 H 14 c -1.108,0 -2,-0.892 -2,-2 z"/>
 <path style="opacity:0.2" d="m 4,34.999989 v 1 c 0,1.108 0.892,2 2,2 h 36 c 1.108,0 2,-0.892 2,-2 v -1 c 0,1.108 -0.892,2 -2,2 H 6 c -1.108,0 -2,-0.892 -2,-2 z"/>
 <circle opacity=".2" cx="36" cy="37" r="11"/>
 <circle fill="#3593cd" cx="36" cy="36" r="11"/>
 <path fill="#fff" fill-rule="evenodd" d="m36 31c-1.5508 0.0151-3.1121 0.36944-4.4629 1.135-0.53841 0.3507-1.1848 0.80366-1.6719 1.26-0.76649 0.75058-1.4225 1.6263-1.8652 2.606 1.2149 2.6801 3.8859 4.6445 6.8242 4.9346 1.9274 0.21817 3.9444-0.11487 5.6387-1.0686 0.53839-0.3507 1.1848-0.80366 1.6719-1.26 0.7665-0.75059 1.4225-1.6264 1.8652-2.606-1.215-2.68-3.8858-4.6448-6.8242-4.9347-0.38988-0.0455-0.78329-0.0665-1.1758-0.0665zm0 2.0004c1.607-0.0356 3.0303 1.4021 3 3.0007 0.05149 1.7668-1.709 3.2916-3.4492 2.9616-1.7576-0.20637-2.9921-2.1782-2.4141-3.8485 0.36917-1.2296 1.5758-2.129 2.8633-2.1138zm0 2.0004a1 1.0002 0 0 0 -1 1.0002 1 1.0002 0 0 0 1 1.0002 1 1.0002 0 0 0 0.99999 -1.0002 1 1.0002 0 0 0 -1 -0.999z"/>
</svg>

<svg xmlns="http://www.w3.org/2000/svg" width="48" height="48" version="1.1" viewBox="0 0 48 48">
 <rect style="opacity:0.2" width="32" height="24" x="-43" y="-36" rx="2" ry="2" transform="matrix(0,-1,-1,0,0,0)"/>
 <rect style="fill:#8e8e8e" width="32" height="24" x="-42" y="-36" rx="2" ry="2" transform="matrix(0,-1,-1,0,0,0)"/>
 <rect style="opacity:0.2" width="32" height="40" x="-39" y="-44" rx="2" ry="2" transform="matrix(0,-1,-1,0,0,0)"/>
 <rect style="fill:#4f4f4f" width="32" height="40" x="-38" y="-44" rx="2" ry="2" transform="matrix(0,-1,-1,0,0,0)"/>
 <rect style="opacity:0.4" width="26" height="34" x="-35" y="-41" rx="0" ry="0" transform="matrix(0,-1,-1,0,0,0)"/>
 <path style="opacity:0.1;fill:#ffffff" d="M 6,6 C 4.892,6 4,6.892 4,8 V 9 C 4,7.892 4.892,7 6,7 H 42 C 43.108,7 44,7.892 44,9 V 8 C 44,6.892 43.108,6 42,6 Z"/>
 <rect style="opacity:0.1;fill:#ffffff" width="34" height="1" x="7" y="35"/>
 <circle opacity=".2" cx="36" cy="37" r="11"/>
 <circle fill="#3593cd" cx="36" cy="36" r="11"/>
 <path style="fill:#ffffff;fill-rule:evenodd" d="M 36,31 C 34.449,31.015 32.888,31.369 31.537,32.135 30.999,32.486 30.352,32.939 29.865,33.395 29.099,34.146 28.443,35.021 28,36.001 29.215,38.681 31.886,40.646 34.824,40.936 36.752,41.154 38.769,40.821 40.463,39.867 41.001,39.516 41.648,39.063 42.135,38.607 42.901,37.856 43.557,36.981 44,36.001 42.785,33.321 40.114,31.356 37.176,31.066 36.786,31.021 36.393,31 36,31 Z M 36,33 C 37.607,32.965 39.03,34.402 39,36.001 39.051,37.768 37.291,39.293 35.551,38.963 33.793,38.756 32.559,36.785 33.137,35.114 33.506,33.885 34.713,32.985 36,33 Z M 36,35.001 A 1,1.0002 0 0 0 35,36.001 1,1.0002 0 0 0 36,37.001 1,1.0002 0 0 0 37,36.001 1,1.0002 0 0 0 36,35.002 Z"/>
</svg>
